icons/reserved-line.svg

<svg xmlns="http://www.w3.org/2000/svg" width="24" height="24" fill="none"><g clip-path="url(#a)"><g><path fill="#121212" d="M13 15V19H16V21H8V19H11V15H4C3.73478 15 3.48043 14.8946 3.29289 14.7071C3.10536 14.5196 3 14.2652 3 14V4C3 3.73478 3.10536 3.48043 3.29289 3.29289C3.48043 3.10536 3.73478 3 4 3H20C20.2652 3 20.5196 3.10536 20.7071 3.29289C20.8946 3.48043 21 3.73478 21 4V14C21 14.2652 20.8946 14.5196 20.7071 14.7071C20.5196 14.8946 20.2652 15 20 15H13ZM5 13H19V5H5V13ZM8 8H16V10H8V8Z"/></g></g><defs><clipPath id="a"><rect width="24" height="24" fill="white"/></clipPath></defs></svg>

<svg width="24" height="24" fill="none" xmlns="http://www.w3.org/2000/svg"><g clip-path="url(#a)"><path d="M13 15v4h3v2H8v-2h3v-4H4a1 1 0 0 1-1-1V4a1 1 0 0 1 1-1h16a1 1 0 0 1 1 1v10a1 1 0 0 1-1 1h-7Zm-8-2h14V5H5v8Zm3-5h8v2H8V8Z" /></g><defs><clipPath id="a"><path fill="#fff" d="M0 0h24v24H0z"/></clipPath></defs></svg>
